icons/svg/note-add.svg

<svg width="24" height="24" viewBox="0 0 24 24" fill="none" xmlns="http://www.w3.org/2000/svg">
<path fill-rule="evenodd" clip-rule="evenodd" d="M6.5 12C9.53757 12 12 9.53757 12 6.5C12 3.46243 9.53757 1 6.5 1C3.46243 1 1 3.46243 1 6.5C1 9.53757 3.46243 12 6.5 12ZM6.5 3.00659C6.77614 3.00659 7 3.23045 7 3.50659V6.00006H9.49342C9.76956 6.00006 9.99342 6.22392 9.99342 6.50006C9.99342 6.7762 9.76956 7.00006 9.49342 7.00006H7V9.49343C7 9.76958 6.77614 9.99343 6.5 9.99343C6.22386 9.99343 6 9.76958 6 9.49343V7.00006H3.50658C3.23044 7.00006 3.00658 6.7762 3.00658 6.50006C3.00658 6.22392 3.23044 6.00006 3.50658 6.00006H6V3.50659C6 3.23045 6.22386 3.00659 6.5 3.00659Z" fill="currentColor"/>
<path d="M20.5 14H18.8C17.1198 14 16.2798 14 15.638 14.327C15.0735 14.6146 14.6146 15.0735 14.327 15.638C14 16.2798 14 17.1198 14 18.8V20.5M15.5 8H14M11.5 12H13M13.75 4H14.1C16.3402 4 17.4603 4 18.316 4.43597C19.0686 4.81947 19.6805 5.43139 20.064 6.18404C20.5 7.03969 20.5 8.15979 20.5 10.4V13.849C20.5 14.8274 20.5 15.3166 20.3895 15.7769C20.2915 16.1851 20.1299 16.5753 19.9106 16.9331C19.6632 17.3368 19.3173 17.6827 18.6255 18.3745L18.3745 18.6255C17.6827 19.3173 17.3368 19.6632 16.9331 19.9106C16.5753 20.1299 16.1851 20.2915 15.7769 20.3895C15.3166 20.5 14.8274 20.5 13.849 20.5H10.4C8.15979 20.5 7.03969 20.5 6.18404 20.064C5.43139 19.6805 4.81947 19.0686 4.43597 18.316C4 17.4603 4 16.3402 4 14.1V13.75" stroke="currentColor" stroke-width="1.5" stroke-linecap="round" stroke-linejoin="round"/>
</svg>

<svg xmlns="http://www.w3.org/2000/svg" width="24" height="24" fill="none" viewBox="0 0 24 24"><path fill="currentColor" fill-rule="evenodd" d="M6.5 12a5.5 5.5 0 1 0 0-11 5.5 5.5 0 0 0 0 11m0-8.993a.5.5 0 0 1 .5.5V6h2.493a.5.5 0 0 1 0 1H7v2.493a.5.5 0 1 1-1 0V7H3.507a.5.5 0 0 1 0-1H6V3.507a.5.5 0 0 1 .5-.5" clip-rule="evenodd"/><path stroke="currentColor" stroke-linecap="round" stroke-linejoin="round" stroke-width="1.5" d="M20.5 14h-1.7c-1.68 0-2.52 0-3.162.327a3 3 0 0 0-1.311 1.311C14 16.28 14 17.12 14 18.8v1.7M15.5 8H14m-2.5 4H13m.75-8h.35c2.24 0 3.36 0 4.216.436a4 4 0 0 1 1.748 1.748c.436.856.436 1.976.436 4.216v3.449c0 .978 0 1.468-.11 1.928-.099.408-.26.798-.48 1.156-.247.404-.593.75-1.285 1.442l-.25.25c-.692.692-1.038 1.038-1.442 1.286a4 4 0 0 1-1.156.479c-.46.11-.95.11-1.928.11H10.4c-2.24 0-3.36 0-4.216-.436a4 4 0 0 1-1.748-1.748C4 17.46 4 16.34 4 14.1v-.35"/></svg>
